X:3
T:Twilight Waltz - Romantic Classical
C:Alex
M:3/4
L:1/8
K:C

|: c4d4 | e4g4 | f4e4 | d4z4 |
   g4a4 | b2ag2 | f4e4 | d4c4 :|

|: e4f4 | g4b4 | a4g4 | f4z4 |
   b4c'4 | d'2c'b2 | a4g4 | f4e4 :|

|: c'4b4 | a4g4 | f4e4 | d4z4 |
   g4f4 | e4d4 | c4z4 | z4 :|

